svg/fluentui-system-icons/ic_fluent_puzzle_cube_piece_20_regular.svg

<svg width="20" height="20" viewBox="0 0 20 20" fill="none" xmlns="http://www.w3.org/2000/svg">
<path d="M17.208 1.28996C16.8175 0.899439 16.1844 0.899439 15.7938 1.28996L14.2909 2.79286C13.9004 3.18338 13.9004 3.81655 14.2909 4.20707L15.7938 5.70996C16.1844 6.10049 16.8175 6.10049 17.208 5.70996L18.7109 4.20707C19.1015 3.81655 19.1015 3.18338 18.7109 2.79286L17.208 1.28996ZM14.998 3.49996L16.5009 1.99707L18.0038 3.49996L16.5009 5.00286L14.998 3.49996ZM12.998 2.99994H5.5C4.11929 2.99994 3 4.11923 3 5.49994V14.4999C3 15.8807 4.11929 16.9999 5.5 16.9999H14.5C15.8807 16.9999 17 15.8807 17 14.4999V6.99994H12.998V2.99994ZM5.35554 15.9931C4.59489 15.9204 4 15.2796 4 14.4999V12.9999H7V15.9999H5.5L5.35554 15.9931ZM8 12.9999H12V15.9999H8V12.9999ZM15.9931 14.6444C15.9204 15.4051 15.2797 15.9999 14.5 15.9999H13V12.9999H16V14.4999L15.9931 14.6444ZM8 7.99994H12V11.9999H8V7.99994ZM13 11.9999V7.99994H16V11.9999H13ZM8 3.99994H12V6.99994H8V3.99994ZM5.5 3.99994H7V6.99994H4V5.49994L4.00687 5.35548C4.07955 4.59483 4.7203 3.99994 5.5 3.99994ZM4 11.9999V7.99994H7V11.9999H4Z" fill="#212121"/>
</svg>

<svg xmlns="http://www.w3.org/2000/svg" width="20" height="20"><path d="M17.208 1.29a1 1 0 0 0-1.414 0L14.29 2.793a1 1 0 0 0 0 1.414l1.503 1.503a1 1 0 0 0 1.414 0l1.503-1.503a1 1 0 0 0 0-1.414L17.208 1.29Zm-2.21 2.21 1.503-1.503L18.004 3.5 16.5 5.003 14.998 3.5Zm-2-.5H5.5A2.5 2.5 0 0 0 3 5.5v9A2.5 2.5 0 0 0 5.5 17h9a2.5 2.5 0 0 0 2.5-2.5V7h-4.002V3ZM5.356 15.993A1.5 1.5 0 0 1 4 14.5V13h3v3H5.5l-.144-.007ZM8 13h4v3H8v-3Zm7.993 1.644A1.5 1.5 0 0 1 14.5 16H13v-3h3v1.5l-.007.144ZM8 8h4v4H8V8Zm5 4V8h3v4h-3ZM8 4h4v3H8V4ZM5.5 4H7v3H4V5.5l.007-.145A1.5 1.5 0 0 1 5.5 4ZM4 12V8h3v4H4Z"/></svg>
